!!!!SEGMENT: pl-wn--sd-xvi-qu-273--032_gomolka-mikolaj--szczesliwy-komu-grzechy-odpuszczono.krn
!!!cenid: 15xx:237
!!!COM: Gomółka, Mikołaj
!!!COM-rismid: pe30013343
!!!CDT: ~1535->1591/04/30
!!!CNT: Polish
!!!GTL: Melodiae na psalterz polski
!!!OTL: XXXII. Szczęśliwy, komu grzechy odpuszczono
!!!ONB: PSALM XXXII. Beati quorum remissae funt iniquitates: et quorum tecta sunt peccata.
!!!PDT: 1580
!!!AGN: Sacred
!!!SMS-siglum: PL-Wn
!!!SMS-shelfmark: SD XVI.Qu.273
!!!SMS-shelfwork: 032 G
!!!NIFC-rismid:
!!!ONB-nifc: Melodiae na psalterz polski
**kern	**text	**kern	**text	**kern	**text	**kern	**text
*part4	*part4	*part3	*part3	*part2	*part2	*part1	*part1
*staff4	*staff4	*staff3	*staff3	*staff2	*staff2	*staff1	*staff1
*clefF3	*	*clefC3	*	*clefC3	*	*clefC1	*
*k[]	*	*k[]	*	*k[]	*	*k[]	*
*d:	*	*d:	*	*d:	*	*d:	*
*M2/1	*	*M2/1	*	*M2/1	*	*M2/1	*
*met(C|)	*	*met(C|)	*	*met(C|)	*	*met(C|)	*
*I"BASSUS.	*	*I"TENOR.	*	*I"ALTUS.	*	*I"CANTUS.	*
*>[A,A,B]	*	*>[A,A,B]	*	*>[A,A,B]	*	*>[A,A,B]	*
=1-	=1	=1-	=1	=1-	=1	=1-	=1
*>A	*	*>A	*	*>A	*	*>A	*
*	*^	*	*^	*	*^	*	*^
1D/	Szczę-	I	1d\	Szczę-	I	1f\	Szczę-	I	1a\	Szczęś-	I
2A\	-śli-	w nie-	2c#X/	-śli-	w nie-	2e\	-śli-	w nie-	2a\	-li-	w nie-
2D/	-wy,	-pá-	2d\	-wy,	pá-	2f#X\	-wy,	-pá-	2a\	-wy,	-pá-
=2-	=2	=2	=2-	=2	=2	=2-	=2	=2	=2-	=2	=2
1G\	ko-	-mię-	1d\	ko-	-mię-	1g\	ko-	-mię-	1b\	ko-	-mię-
2C/	-mu	-ći	2e\	-mu	-ći	2g\	-mu	-ći	2cc\	-mu	-ći
2c\	grzé-	zło-	2e\	grzé-	zło-	2g\	grzé-	zło-	2cc\	grzé-	zło-
=3-	=3	=3	=3-	=3	=3	=3-	=3	=3	=3-	=3	=3
!	!	!	!	!	!	!LO:SIC:s=2g:t=brak nuty w żródle:v	!	!	!	!	!
2G\	-chy	-sći	4d\	-chy	-śći	2ryy	-chy	-śći	2b\	-chy	-śći
.	.	.	4cny/	.	.	.	.	.	.	.	.
2A\	od-	po-	4B/	.	.	2e\	od-	po-	1a\	od_pu-	po_nu-
.	.	.	4A/	od-	po-	.	.	.	.	.	.
2E/	-pu-	-nu-	2B/	-pu-	-nu-	2.e\	-pu-	-nu-	.	.	.
2E/	-szczo-	-rzo-	2B/	-szczo-	-rzo-	.	.	.	2g#X/	-szczo-	-rzo-
.	.	.	.	.	.	4d\	-czczo-	-rzo-	.	.	.
=4-	=4	=4	=4-	=4	=4	=4-	=4	=4	=4-	=4	=4
1AA/	-no,	-no.	1A/	-no,	-no.	1c#X\	-no,	-no.	1a\	-no	-no.
*	*v	*v	*	*v	*v	*	*v	*v	*	*v	*v
=:|!	=	=:|!	=	=:|!	=	=:|!	=
*>B	*	*>B	*	*>B	*	*>B	*
1D/	Szczęś-	1A/	Szczęś-	1d\	Szczęś-	1f#X/	Szczęś-
=5-	=5	=5-	=5	=5-	=5	=5-	=5
2G\	-li-	2B/	-li-	2d\	-li-	2g/	-li-
2F#X/	-wy,	2A/	-wy	1d\	-wy,	2a\	-wy
1G\	ko-	2.B/	ko-	.	.	1g\	ko-
.	.	.	.	2G/	ko-	.	.
.	.	4c/	.	.	.	.	.
=6-	=6	=6-	=6	=6-	=6	=6-	=6
!!LO:PB:g=original
2D/	-mu	2d\	-mu	2A/	-mu	2f#X/	-mu
2D/	nie	2f\	nie	2d\	nie	2a\	nie
2E/	przy-	2e\	przy-	2B/	przy-	2g#X/	przy-
2Fny/	-(czetł)	2d\	-(czetł)	2A/	-(czetł)	2a\	-cz(etł)
=7-	=7	=7-	=7	=7-	=7	=7-	=7
2G\	pan	2d\	pan	2B/	pan	2gny/	pan
2A\	wá-	2c#X/	wá-	2A/	wá-	2e/	wá-
2D/	-dy,	2d\	-dy,	2A/	-dy,	2f#X/	-dy,
2D/	A-	2d\	A-	4f\	A-	2a\	A-
.	.	.	.	4g\	.	.	.
=8-	=8	=8-	=8	=8-	=8	=8-	=8
2A\	-ni	2e\	-ni	2a\	-ni	2cc\	-ni
2A\	sye	2f\	sye	2a\	sye	2cc\	sye
1G\	ża-	1g\	ża-	1d\	ża-	1b\	ża-
=9-	=9	=9-	=9	=9-	=9	=9-	=9
1D/	-dnéy	1f\	-dnéy	1d\	-dnéy	1a\	-dnéy
2C/	w n(im)	2.e\	w n(im)	2.g\	w nim	2.cc\	w nim
2D/	do-	.	.	.	.	.	.
.	.	4d\	do-	4f\	do-	4b\	.
=10-	=10	=10-	=10	=10-	=10	=10-	=10
2F/	-má-	2cny/	-má-	2f\	-má-	2a\	do-
2D/	-(cał)	2d\	-cał	2f\	-cał	4g/	-má-
.	.	.	.	.	.	4f#X/	-cał
1E/	zdrá-	1B/	zdrá-	2.e\	zdrá-	4g/	.
.	.	.	.	.	.	2a\	zdrá-
.	.	.	.	4d\	.	4g/	-dy.
=11-	=11	=11-	=11	=11-	=11	=11-	=11
*	*	*000/left	*	*	*	*	*
000AA/	-dy.	000A/	-dy.	000c#X\	-dy.	000a\	.
==	==	==	==	==	==	==	==
*-	*-	*-	*-	*-	*-	*-	*-
!!!RDF**kern: l = terminal long
!!!system-decoration: s1,s2,s3,s4
!!!ENC: Marta Lawrence
!!!END: 2020-02-07
!!!URL-scan: https://polona.pl/item/melodiae-na-psalterz-polski,Nzk3MTM4ODQ/86 Scan on Polona
!!!IIIF: https://polona.pl/iiif/item/Nzk3MTM4ODQ/manifest.json
